build/assets/img/svg/basket.svg

<svg width="36" height="34" viewBox="0 0 36 34" fill="none" xmlns="http://www.w3.org/2000/svg">
<path fill-rule="evenodd" clip-rule="evenodd" d="M11.1454 6.73205C12.0216 4.0142 14.6367 2 17.7965 2C20.9562 2 23.5713 4.0142 24.4475 6.73205L17.7965 6.73205L11.1454 6.73205ZM26.5823 6.98564C26.5646 6.90065 26.5456 6.81612 26.5254 6.73204C25.597 2.87335 22.0413 0 17.7965 0C13.5517 0 9.99591 2.87335 9.06756 6.73205C9.04733 6.81612 9.02835 6.90066 9.01064 6.98564H0.50023C0.176938 6.98564 -0.0613645 7.28783 0.0140088 7.60221L6.05478 32.7984C6.10869 33.0232 6.30976 33.1818 6.541 33.1818H29.0521C29.2833 33.1818 29.4844 33.0232 29.5383 32.7984L35.579 7.60221C35.6544 7.28783 35.4161 6.98564 35.0928 6.98564H26.5823ZM10.8313 8.73205L8.8313 8.73205H2.0214L7.37259 31.052C7.4265 31.2768 7.62757 31.4354 7.85881 31.4354H27.7342C27.9655 31.4354 28.1666 31.2768 28.2205 31.052L33.5717 8.73205L10.8313 8.73205Z" fill="white"/>
</svg>

<svg width="36" height="34" fill="none" xmlns="http://www.w3.org/2000/svg"><path fill-rule="evenodd" clip-rule="evenodd" d="M11.145 6.732C12.022 4.014 14.637 2 17.797 2s5.774 2.014 6.65 4.732H11.146zm15.437.254a8.534 8.534 0 00-.057-.254C25.597 2.873 22.041 0 17.797 0c-4.245 0-7.801 2.873-8.73 6.732-.02.084-.039.169-.056.254H.5a.5.5 0 00-.487.616l6.04 25.196a.5.5 0 00.487.384h22.511a.5.5 0 00.486-.384L35.58 7.602a.5.5 0 00-.486-.616h-8.51zm-15.75 1.746H2.021l5.35 22.32a.5.5 0 00.487.383h19.875a.5.5 0 00.486-.383l5.352-22.32h-22.74z" fill="#fff"/></svg>
